src/asset/img/icon/item_category/furniture.svg

<svg xmlns:xlink="http://www.w3.org/1999/xlink" height="21.4" width="22" xmlns="http://www.w3.org/2000/svg"><use height="77.55" transform="matrix(.2757 0 0 .2758 .012 .006)" width="79.75" xlink:href="#a"/><defs><use height="77.55" width="79.75" xlink:href="#b" id="a"/><g id="b" fill-rule="evenodd"><path d="m-13.15 42.4.2-.15-.15.2-.05-.05" fill="#85a0bb" transform="translate(15.55 -3.65)"/><path d="M-13.15 42.45v-.05l.05.05h-.05" fill="#98b3ce" transform="translate(15.55 -3.65)"/><path d="m46.7 17.3-2.25-1.1-8.5-4.3v-.2l-.2.1-8.45-4.3-.2-.15-.8-.65-.2.2-2.55-1.3-34.9 35-.3-.15-1.3 1.8-.2.15v.05l-.8 1.1 1.05.5.4 2.9L23.55 66.3l1.9.5v.15l35.7-36 .35-3.1 1.1-1.1-1.3-3.1-.65.7L46.7 17.3m9.25 23.5.35 2.4q1 5.5-.15 9.05-1.6 4.85-6.95 2.6-2.2-.95-3-4.55L26.15 69.9q.65 4.65-.35 7.85-1.6 5.05-6.95 2.75-3.05-1.45-3.4-7.75l.4-7.75L3.3 58.5l.05.4q.95 5.45-.15 9-1.65 4.85-6.95 2.6-3.1-1.45-3.4-7.6.45-6.85.35-9.7l-7.15-3.7-1.6-7.6 36.5-38.25h5.5L64.2 21.9l-.45 11.3-7.8 7.6m-4.4 4.3-2.3 2.25q-.05 3.15 2.7 3.95l.3-6-.7-.2M21.6 76.8l.3-5.8-2.75-.8q-1.25 5.65 2.45 6.6M-1 66.8l.3-5.8-2.75-.85Q-4.75 66-1 66.8" fill="#3f5a75" fill-opacity=".953" transform="translate(15.55 -3.65)"/><path d="m51.55 45.1.7.2-.3 6q-2.75-.8-2.7-3.95l2.3-2.25M21.6 76.8q-3.7-.95-2.45-6.6l2.75.8-.3 5.8M-1 66.8q-3.75-.8-2.45-6.65L-.7 61l-.3 5.8" fill="#3f5a75" fill-opacity=".192" transform="translate(15.55 -3.65)"/><path d="m25.45 66.8-1.9-.5-36.05-19.35-.4-2.9L24.8 62.1l.65 4.7" fill="#3f5a75" fill-opacity=".263" transform="translate(15.55 -3.65)"/><path d="m61.5 27.85-.35 3.1-35.7 36v-.15l-.65-4.7h.05l.8 1.3L61.5 27.85" fill="#3f5a75" fill-opacity=".482" transform="translate(15.55 -3.65)"/><path d="m60.65 24.35.65-.7 1.3 3.1-1.1 1.1L25.65 63.4l-.8-1.3-.5-.8 1.95-1.95 5.8-5.9 6.4-6.55 17.75-18.05 1.9-1.95 2.5-2.55" fill="#3f5a75" fill-opacity=".722" transform="translate(15.55 -3.65)"/><path d="m48.4 18.5-1.95-1.1-.95-.65-4.85 6.9q-3.05 4.55-6 6-1.25.65-3.85.95l-4.05.85q-5.15 1.25-6.3 1.1 4.05 1 4.85 1.8 1 1.1-.15 4.35l-1.95 5q-1.3 3.25-1.1 5 3.05-2.6 6.6-7.25l5.5-8.25q2.55-3.7 11.3-9.85L50 20.1q-.3-.8-1.6-1.6m-3.95-2.3 2.25 1.1 1.05.7 5.15 3.4q-11.95 6-20 17.8-1.95 2.7-4.35 7.75L24.35 55l-1.95 2.45-8.25-4.15q5.8-5 7.1-8.8 3.1-9.35-2.55-10.35-3.75-.8-7.95 1.95-3.35 2.25-5.8 5.8l-2.4 3.4-1.5 1.5-8.6-4.3q2.6-1.75 6.55-5.25 5-4.55 8.2-6 2.3-.95 6-.95l6.15.15q10.15 0 15.8-6.3l3.25-4.5q2.55-3.4 3.85-3.75.85-.2 2.2.3M26.1 6.9l.2-.2.8.65.2.15q2.7 2 3.15 2.95-1.25.15-4.15 1.9-4.4 2.75-.85 2.3 3.4-.5 6.3-1.95 2.15-1.15 3.65-.75-5.1 2.05-14.45 8.8 3.7.35 9.05-1.9 4.65-2.1 8.05-4.85-.65-1-2.1-1.8v-.1q.9.3 3.75 2.55-1.15 1.25-6 3.7-4.85 3.7-8.05 5.3-5.85 3.25-8.6.35-2.7-2.9 1.95-9.05 2.55-3.35 7.1-8.05m6 46.55q-.5-8.5 6.45-17.2 7.25-8.85 15.65-9.5l3.95.15-1.9 1.95q-7.35-.45-12.55 7.1-1.9 2.9-5.2 10.95l-6.4 6.55" fill="#3f5a75" fill-opacity=".424" transform="translate(15.55 -3.65)"/><path d="M48.4 18.5q1.3.8 1.6 1.6l-4.5 3.25q-8.75 6.15-11.3 9.85l-5.5 8.25q-3.55 4.65-6.6 7.25-.2-1.75 1.1-5l1.95-5q1.15-3.25.15-4.35-.8-.8-4.85-1.8 1.15.15 6.3-1.1l4.05-.85q2.6-.3 3.85-.95 2.95-1.45 6-6l4.85-6.9.95.65 1.95 1.1m-21.1-11 8.45 4.3-.35.15q-1.5-.4-3.65.75-2.9 1.45-6.3 1.95-3.55.45.85-2.3 2.9-1.75 4.15-1.9Q30 9.5 27.3 7.5m11.2 39.4q3.3-8.05 5.2-10.95 5.2-7.55 12.55-7.1L38.5 46.9" fill="#3f5a75" fill-opacity=".553" transform="translate(15.55 -3.65)"/><path d="M44.45 16.2q-1.35-.5-2.2-.3-1.3.35-3.85 3.75l-3.25 4.5q-5.65 6.3-15.8 6.3l-6.15-.15q-3.7 0-6 .95-3.2 1.45-8.2 6-3.95 3.5-6.55 5.25l-3.8-1.9 34.9-35 2.55 1.3q-4.55 4.7-7.1 8.05-4.65 6.15-1.95 9.05 2.75 2.9 8.6-.35 3.2-1.6 8.05-5.3 4.85-2.45 6-3.7-2.85-2.25-3.75-2.55v.1q1.45.8 2.1 1.8-3.4 2.75-8.05 4.85-5.35 2.25-9.05 1.9Q30.3 14 35.4 11.95l.35-.15.2-.1v.2l8.5 4.3M1.05 46.8l1.5-1.5 2.4-3.4q2.45-3.55 5.8-5.8 4.2-2.75 7.95-1.95 5.65 1 2.55 10.35-1.3 3.8-7.1 8.8l-13.1-6.5m5.5.45L8.2 48.4q2.4.95 5.5-.5 3.2-1.45 2.25-4.5-1-3.25-5-1-3.9 1.95-4.4 4.85" fill="#3f5a75" fill-opacity=".302" transform="translate(15.55 -3.65)"/><path d="M6.55 47.25q.5-2.9 4.4-4.85 4-2.25 5 1 .95 3.05-2.25 4.5-3.1 1.45-5.5.5l-1.65-1.15" fill="#3f5a75" fill-opacity=".114" transform="translate(15.55 -3.65)"/><path d="M22.4 57.45 24.35 55l4.2-8.05q2.4-5.05 4.35-7.75 8.05-11.8 20-17.8L47.75 18l-1.05-.7 13.95 7.05-2.5 2.55-3.95-.15q-8.4.65-15.65 9.5-6.95 8.7-6.45 17.2l-5.8 5.9-3.9-1.9" fill="#3f5a75" fill-opacity=".353" transform="translate(15.55 -3.65)"/></g></defs></svg>

<?xml version="1.0" encoding="UTF-8" standalone="no"?>
<svg xmlns:xlink="http://www.w3.org/1999/xlink" height="21.4px" width="22.0px" xmlns="http://www.w3.org/2000/svg">
  <g transform="matrix(1.0, 0.0, 0.0, 1.0, -1.5, -1.8)">
    <use height="77.55" transform="matrix(0.2757, 0.0, 0.0, 0.2758, 1.5122, 1.8065)" width="79.75" xlink:href="#sprite0"/>
  </g>
  <defs>
    <g id="sprite0" transform="matrix(1.0, 0.0, 0.0, 1.0, 15.55, -3.65)">
      <use height="77.55" transform="matrix(1.0, 0.0, 0.0, 1.0, -15.55, 3.65)" width="79.75" xlink:href="#shape0"/>
    </g>
    <g id="shape0" transform="matrix(1.0, 0.0, 0.0, 1.0, 15.55, -3.65)">
      <path d="M-13.15 42.4 L-12.95 42.25 -13.1 42.45 -13.15 42.4" fill="#85a0bb" fill-rule="evenodd" stroke="none"/>
      <path d="M-13.15 42.45 L-13.15 42.4 -13.1 42.45 -13.15 42.45" fill="#98b3ce" fill-rule="evenodd" stroke="none"/>
      <path d="M46.7 17.3 L44.45 16.2 35.95 11.9 35.95 11.7 35.75 11.8 27.3 7.5 27.1 7.35 26.3 6.7 26.1 6.9 23.55 5.6 -11.35 40.6 -11.65 40.45 -12.95 42.25 -13.15 42.4 -13.15 42.45 -13.95 43.55 -12.9 44.05 -12.5 46.95 23.55 66.3 25.45 66.8 25.45 66.95 61.15 30.95 61.5 27.85 62.6 26.75 61.3 23.65 60.65 24.35 46.7 17.3 M55.95 40.8 L56.3 43.2 Q57.3 48.7 56.15 52.25 54.55 57.1 49.2 54.85 47.0 53.9 46.2 50.3 L26.15 69.9 Q26.8 74.55 25.8 77.75 24.2 82.8 18.85 80.5 15.8 79.05 15.45 72.75 L15.85 65.0 3.3 58.5 3.35 58.9 Q4.3 64.35 3.2 67.9 1.55 72.75 -3.75 70.5 -6.85 69.05 -7.15 62.9 -6.7 56.05 -6.8 53.2 L-13.95 49.5 -15.55 41.9 20.95 3.65 26.45 3.65 64.2 21.9 63.75 33.2 55.95 40.8 M51.55 45.1 L49.25 47.35 Q49.2 50.5 51.95 51.3 L52.25 45.3 51.55 45.1 M21.6 76.8 L21.9 71.0 19.15 70.2 Q17.9 75.85 21.6 76.8 M-1.0 66.8 L-0.7 61.0 -3.45 60.15 Q-4.75 66.0 -1.0 66.8" fill="#3f5a75" fill-opacity="0.9529412" fill-rule="evenodd" stroke="none"/>
      <path d="M51.55 45.1 L52.25 45.3 51.95 51.3 Q49.2 50.5 49.25 47.35 L51.55 45.1 M21.6 76.8 Q17.9 75.85 19.15 70.2 L21.9 71.0 21.6 76.8 M-1.0 66.8 Q-4.75 66.0 -3.45 60.15 L-0.7 61.0 -1.0 66.8" fill="#3f5a75" fill-opacity="0.19215687" fill-rule="evenodd" stroke="none"/>
      <path d="M25.45 66.8 L23.55 66.3 -12.5 46.95 -12.9 44.05 24.8 62.1 25.45 66.8" fill="#3f5a75" fill-opacity="0.2627451" fill-rule="evenodd" stroke="none"/>
      <path d="M61.5 27.85 L61.15 30.95 25.45 66.95 25.45 66.8 24.8 62.1 24.85 62.1 25.65 63.4 61.5 27.85" fill="#3f5a75" fill-opacity="0.48235294" fill-rule="evenodd" stroke="none"/>
      <path d="M60.65 24.35 L61.3 23.65 62.6 26.75 61.5 27.85 25.65 63.4 24.85 62.1 24.35 61.3 26.3 59.35 32.1 53.45 38.5 46.9 56.25 28.85 58.15 26.9 60.65 24.35" fill="#3f5a75" fill-opacity="0.72156864" fill-rule="evenodd" stroke="none"/>
      <path d="M48.4 18.5 L46.45 17.4 45.5 16.75 40.65 23.65 Q37.6 28.2 34.65 29.65 33.4 30.3 30.8 30.6 L26.75 31.45 Q21.6 32.7 20.45 32.55 24.5 33.55 25.3 34.35 26.3 35.45 25.15 38.7 L23.2 43.7 Q21.9 46.95 22.1 48.7 25.15 46.1 28.7 41.45 L34.2 33.2 Q36.75 29.5 45.5 23.35 L50.0 20.1 Q49.7 19.3 48.4 18.5 M44.45 16.2 L46.7 17.3 47.75 18.0 52.9 21.4 Q40.95 27.4 32.9 39.2 30.95 41.9 28.55 46.95 L24.35 55.0 22.4 57.45 14.15 53.3 Q19.95 48.3 21.25 44.5 24.35 35.15 18.7 34.15 14.95 33.35 10.75 36.1 7.4 38.35 4.95 41.9 L2.55 45.3 1.05 46.8 -7.55 42.5 Q-4.95 40.75 -1.0 37.25 4.0 32.7 7.2 31.25 9.5 30.3 13.2 30.3 L19.35 30.45 Q29.5 30.45 35.15 24.15 L38.4 19.65 Q40.95 16.25 42.25 15.9 43.1 15.7 44.45 16.2 M26.1 6.9 L26.3 6.7 27.1 7.35 27.3 7.5 Q30.0 9.5 30.45 10.45 29.2 10.6 26.3 12.35 21.9 15.1 25.45 14.65 28.85 14.15 31.75 12.7 33.9 11.55 35.4 11.95 30.3 14.0 20.95 20.75 24.65 21.1 30.0 18.85 34.65 16.75 38.05 14.0 37.4 13.0 35.95 12.2 L35.95 12.1 Q36.85 12.4 39.7 14.65 38.55 15.9 33.7 18.35 28.85 22.05 25.65 23.65 19.8 26.9 17.05 24.0 14.35 21.1 19.0 14.95 21.55 11.6 26.1 6.9 M32.1 53.45 Q31.6 44.95 38.55 36.25 45.8 27.4 54.2 26.75 L58.15 26.9 56.25 28.85 Q48.9 28.4 43.7 35.95 41.8 38.85 38.5 46.9 L32.1 53.45" fill="#3f5a75" fill-opacity="0.42352942" fill-rule="evenodd" stroke="none"/>
      <path d="M48.4 18.5 Q49.7 19.3 50.0 20.1 L45.5 23.35 Q36.75 29.5 34.2 33.2 L28.7 41.45 Q25.15 46.1 22.1 48.7 21.9 46.95 23.2 43.7 L25.15 38.7 Q26.3 35.45 25.3 34.35 24.5 33.55 20.45 32.55 21.6 32.7 26.75 31.45 L30.8 30.6 Q33.4 30.3 34.65 29.65 37.6 28.2 40.65 23.65 L45.5 16.75 46.45 17.4 48.4 18.5 M27.3 7.5 L35.75 11.8 35.4 11.95 Q33.9 11.55 31.75 12.7 28.85 14.15 25.45 14.65 21.9 15.1 26.3 12.35 29.2 10.6 30.45 10.45 30.0 9.5 27.3 7.5 M38.5 46.9 Q41.8 38.85 43.7 35.95 48.9 28.4 56.25 28.85 L38.5 46.9" fill="#3f5a75" fill-opacity="0.5529412" fill-rule="evenodd" stroke="none"/>
      <path d="M44.45 16.2 Q43.1 15.7 42.25 15.9 40.95 16.25 38.4 19.65 L35.15 24.15 Q29.5 30.45 19.35 30.45 L13.2 30.3 Q9.5 30.3 7.2 31.25 4.0 32.7 -1.0 37.25 -4.95 40.75 -7.55 42.5 L-11.35 40.6 23.55 5.6 26.1 6.9 Q21.55 11.6 19.0 14.95 14.35 21.1 17.05 24.0 19.8 26.9 25.65 23.65 28.85 22.05 33.7 18.35 38.55 15.9 39.7 14.65 36.85 12.4 35.95 12.1 L35.95 12.2 Q37.4 13.0 38.05 14.0 34.65 16.75 30.0 18.85 24.65 21.1 20.95 20.75 30.3 14.0 35.4 11.95 L35.75 11.8 35.95 11.7 35.95 11.9 44.45 16.2 M1.05 46.8 L2.55 45.3 4.95 41.9 Q7.4 38.35 10.75 36.1 14.95 33.35 18.7 34.15 24.35 35.15 21.25 44.5 19.95 48.3 14.15 53.3 L1.05 46.8 M6.55 47.25 L8.2 48.4 Q10.6 49.35 13.7 47.9 16.9 46.45 15.95 43.4 14.95 40.15 10.95 42.4 7.05 44.35 6.55 47.25" fill="#3f5a75" fill-opacity="0.3019608" fill-rule="evenodd" stroke="none"/>
      <path d="M6.55 47.25 Q7.05 44.35 10.95 42.4 14.95 40.15 15.95 43.4 16.9 46.45 13.7 47.9 10.6 49.35 8.2 48.4 L6.55 47.25" fill="#3f5a75" fill-opacity="0.11372549" fill-rule="evenodd" stroke="none"/>
      <path d="M22.4 57.45 L24.35 55.0 28.55 46.95 Q30.95 41.9 32.9 39.2 40.95 27.4 52.9 21.4 L47.75 18.0 46.7 17.3 60.65 24.35 58.15 26.9 54.2 26.75 Q45.8 27.4 38.55 36.25 31.6 44.95 32.1 53.45 L26.3 59.35 22.4 57.45" fill="#3f5a75" fill-opacity="0.3529412" fill-rule="evenodd" stroke="none"/>
    </g>
  </defs>
</svg>
